X:95
T:Padraig O'Keefe's
R:slide
D:Jackie Daly and Seamus Creagh
Z:id:hn-slide-95
M:6/8
L:1/8
K:D
FEF A2F | E3 E2F | G3 GFE | F3 F2A |
d2e f2e | cBc e2c | B3 BcB |1 A3 A3 :|2 A3 A2c ||
|: e3 ece | f3 fec | d3 dcB | c3 c2A |
d2e f2d | cBc e2c | B3 BcB |1 A3 A2c :|2 A3 A3 ||

